public/images/logo-small.svg

<svg width="182" height="112" viewBox="0 0 182 112" fill="none" xmlns="http://www.w3.org/2000/svg">
<path d="M132.872 89.0204L156.458 89.2344C158.044 89.2246 162.76 87.6647 163.631 86.4454C152.925 85.9685 142.379 87.0318 132.872 89.0204Z" fill="white"/>
<path d="M81.2796 1.02266C81.5833 0.965607 80.9751 1.07891 81.2796 1.02266V1.02266Z" fill="white"/>
<path d="M87.2089 53.8006C88.2648 42.9765 88.7761 36.1262 87.0112 23.832C86.7703 22.166 84.9557 18.562 83.2554 16.8094C83.2554 40.1581 85.551 41.5244 87.2072 53.8006H87.2089V53.8006Z" fill="white"/>
<path d="M79.9363 55.2471C79.9355 55.2479 79.9355 55.2487 79.9363 55.2503C80.0849 55.2005 80.0102 55.2222 79.9363 55.2471Z" fill="white"/>
<path d="M79.9328 55.2593V55.2561C79.8565 55.2802 79.7834 55.3043 79.9328 55.2593Z" fill="white"/>
<path d="M79.9078 55.2529C79.6759 54.3586 79.845 52.2124 79.7568 51.2936C78.4403 37.5507 75.4088 28.6187 69.6545 13.7496C68.7153 11.3216 64.8443 8.07207 61.7222 5.32642C67.8325 32.4163 79.9078 55.2529 79.9078 55.2529Z" fill="white"/>
<path d="M72.4888 58.4058C72.594 58.3504 72.5402 58.3785 72.4888 58.4058V58.4058Z" fill="white"/>
<path d="M72.4588 58.4064C72.4066 58.4346 72.356 58.4667 72.4588 58.4064V58.4064Z" fill="white"/>
<path d="M72.4441 58.411C72.4441 58.411 71.8536 56.9778 71.6119 56.2673C68.444 46.9523 66.6212 42.9359 62.6056 36.4066C61.8069 35.1081 57.209 32.2693 55.2621 31.0868C55.8166 33.6062 67.7466 52.2427 72.4441 58.411V58.411Z" fill="white"/>
<path d="M133.163 27.1291C134.634 24.5427 135.978 17.0726 136.972 12.1317C133.655 14.7287 114.134 44.5781 110.262 58.3252L133.163 27.1291Z" fill="white"/>
<path d="M130.18 82.8009L169.778 77.1651C173.353 76.386 176.976 74.9601 181.039 71.7073C168.362 71.6869 143.259 77.5146 130.18 82.8009V82.8009Z" fill="white"/>
<path d="M119.298 4.60642L119.234 4.60638L119.298 4.60642Z" fill="white"/>
<path d="M102.805 55.2035C102.735 55.1794 102.668 55.1577 102.805 55.2035V55.2035Z" fill="white"/>
<path d="M103.001 52.0416C102.814 52.7194 102.896 54.3936 102.815 55.2053L114.172 28.688C114.683 26.982 113.856 22.487 113.621 20.2411C112.95 21.8361 111.423 24.7737 110.95 26.434C108.267 35.8331 105.606 42.6172 103.001 52.0416V52.0416Z" fill="white"/>
<path d="M102.815 55.1988C102.949 55.2422 102.879 55.2197 102.815 55.1988V55.1988Z" fill="white"/>
<path d="M138.88 42.9492C140.1 41.5723 141.248 37.8932 141.868 35.0341C138.973 36.5318 123.509 52.2177 116.991 62.9651L138.88 42.9492Z" fill="white"/>
<path d="M51.1651 85.6443C41.3928 82.55 40.0526 81.5291 22.1079 78.7206C20.4533 78.4609 18.7317 78.4903 17.0404 78.3915C18.5202 78.8733 22.9082 83.0269 24.4337 83.2923C34.754 85.0873 48.5476 88.1188 51.1651 85.6443Z" fill="white"/>
<path d="M54.0121 75.1125C44.5697 66.7522 29.6393 61.5067 16.6877 55.8431C14.2965 54.7977 10.2336 56.3543 7.70923 55.6152C14.1217 64.8542 54.5233 75.5649 54.0121 75.1125Z" fill="white"/>
<path d="M103.652 12.6045C103.977 9.15486 101.556 4.34547 99.5724 0.636963C99.0089 4.61743 98.2534 8.58156 97.9178 12.5816C96.9313 24.3311 95.7634 36.0944 94.9508 47.8594C94.8169 49.8072 95.1509 51.759 95.1868 53.715L103.652 12.6045V12.6045Z" fill="white"/>
<path d="M127.578 75.3425L154.875 66.6303C156.338 65.99 157.54 64.0381 158.565 61.816C150.835 63.0867 135.137 70.351 127.578 75.3425Z" fill="white"/>
<path d="M126.8 75.5645C126.777 75.5083 126.748 75.4536 126.8 75.5645V75.5645Z" fill="white"/>
<path d="M126.771 75.5667C126.823 75.6767 126.797 75.6221 126.771 75.5667V75.5667Z" fill="white"/>
<path d="M42.5554 31.0817C39.0265 26.9371 28.5568 22.8774 26.551 21.1844C36.2956 36.8041 50.1463 51.1277 64.0469 63.0332L42.5554 31.0817Z" fill="white"/>
<path d="M16.771 39.269L16.7907 39.2411L16.771 39.269Z" fill="white"/>
<path d="M37.1835 55.292C44.7818 61.3819 52.3401 67.1362 58.4088 69.3788L40.491 52.4059C39.2162 51.5124 37.4244 51.4308 33.6392 51.8644C34.6388 52.8011 36.1276 54.4451 37.1835 55.292V55.292Z" fill="white"/>
<path d="M126.018 63.9734C125.184 64.6227 123.165 67.9049 122.374 68.6056L157.038 49.542C159.598 47.649 164.096 39.9682 165.123 36.717C162.828 38.0522 160.364 39.1654 158.267 40.7611C147.057 49.2929 137.15 55.3404 126.018 63.9734V63.9734Z" fill="white"/>
<path d="M0.262329 93.0125C6.70424 96.4335 18.1393 97.0452 26.6384 97.024C35.4144 97.0027 43.0127 96.5013 49.9495 93.54C45.0217 92.9324 0.403613 90.4987 0.262329 93.0125V93.0125Z" fill="white"/>
<path d="M30.942 108.539C34.5002 107.632 40.484 106.451 44.0365 105.525C55.5034 102.534 49.4249 103.07 45.4134 103.388C39.1104 103.888 28.216 105.716 24.3988 106.735C23.3216 107.022 22.7973 107.377 21.8034 107.883C21.3755 108.102 19.8001 109.815 19.9178 110.28" fill="white"/>
<path d="M68.5172 61.413C68.4593 61.4548 68.4039 61.4942 68.5172 61.413V61.413Z" fill="white"/>
<path d="M68.541 61.4131C68.6527 61.3319 68.5965 61.3721 68.541 61.4131V61.4131Z" fill="white"/>
<path d="M113.61 92.9102L113.514 92.6595C113.105 91.5929 112.322 90.5917 111.809 89.5888C110.813 87.0318 109.147 83.2547 106.842 81.596C104.499 78.304 101.135 77.0717 99.2947 73.1206L99.0292 72.7645L98.8667 72.4722L98.4445 72.2125L96.9712 73.7217C90.3986 78.9451 81.4447 82.8668 74.1428 87.0759C71.4396 88.6349 66.3142 89.4385 63.8764 91.664C59.3643 93.615 60.2161 99.6763 57.5635 102.998C56.6848 104.098 53.9522 104.812 52.7737 105.582C51.1771 106.625 50.1873 108.033 49.0105 109.399L48.9942 109.416C47.9595 110.532 47.6932 109.997 46.7385 111.32C46.9598 111.32 47.2008 111.35 47.4204 111.32L175.199 111.321C174.795 109.962 172.457 106.324 171.931 105.502C170.535 103.324 168.597 101.526 166.691 99.7784C164.289 97.5775 164.107 99.2868 161.746 100.026C160.201 100.509 160.251 99.3203 158.822 99.8821C155.402 101.227 152.259 103.88 148.324 103.711C142.057 103.443 138.735 98.5224 133.456 96.9968C130.067 96.0176 129.933 97.9017 126.644 96.5999C124.94 95.9254 123.535 94.6015 121.812 93.976C119.605 93.1756 115.125 95.5039 113.61 92.9102V92.9102Z" fill="white"/>
</svg>

<?xml version="1.0" encoding="UTF-8"?>
<svg id="Layer_1" xmlns="http://www.w3.org/2000/svg" viewBox="0 0 182 112">
  <defs>
    <style>
      .cls-1 {
        fill: #bd9a64;
      }
    </style>
  </defs>
  <path class="cls-1" d="M132.87,89.02l23.59.21c1.59,0,6.3-1.57,7.17-2.79-10.71-.48-21.25.59-30.76,2.58Z"/>
  <path class="cls-1" d="M81.28,1.02c.3-.06-.3.06,0,0h0Z"/>
  <path class="cls-1" d="M87.21,53.8c1.06-10.82,1.57-17.67-.2-29.97-.24-1.67-2.06-5.27-3.76-7.02,0,23.35,2.3,24.71,3.95,36.99h0Z"/>
  <path class="cls-1" d="M79.94,55.25s0,0,0,0c.15-.05.07-.03,0,0Z"/>
  <path class="cls-1" d="M79.93,55.26h0c-.08.02-.15.04,0,0Z"/>
  <path class="cls-1" d="M79.91,55.25c-.23-.89-.06-3.04-.15-3.96-1.32-13.74-4.35-22.67-10.1-37.54-.94-2.43-4.81-5.68-7.93-8.42,6.11,27.09,18.19,49.93,18.19,49.93Z"/>
  <path class="cls-1" d="M72.49,58.41c.11-.06.05-.03,0,0h0Z"/>
  <path class="cls-1" d="M72.46,58.41c-.05.03-.1.06,0,0h0Z"/>
  <path class="cls-1" d="M72.44,58.41s-.59-1.43-.83-2.14c-3.17-9.31-4.99-13.33-9.01-19.86-.8-1.3-5.4-4.14-7.34-5.32.55,2.52,12.48,21.16,17.18,27.32h0Z"/>
  <path class="cls-1" d="M133.16,27.13c1.47-2.59,2.82-10.06,3.81-15-3.32,2.6-22.84,32.45-26.71,46.19l22.9-31.2Z"/>
  <path class="cls-1" d="M130.18,82.8l39.6-5.64c3.57-.78,7.2-2.21,11.26-5.46-12.68-.02-37.78,5.81-50.86,11.09h0Z"/>
  <path class="cls-1" d="M119.3,4.61h-.06s.06,0,.06,0Z"/>
  <path class="cls-1" d="M102.81,55.2c-.07-.02-.14-.05,0,0h0Z"/>
  <path class="cls-1" d="M103,52.04c-.19.68-.1,2.35-.19,3.16l11.36-26.52c.51-1.71-.32-6.2-.55-8.45-.67,1.59-2.2,4.53-2.67,6.19-2.68,9.4-5.34,16.18-7.95,25.61h0Z"/>
  <path class="cls-1" d="M102.82,55.2c.13.04.06.02,0,0h0Z"/>
  <path class="cls-1" d="M138.88,42.95c1.22-1.38,2.37-5.06,2.99-7.92-2.89,1.5-18.36,17.18-24.88,27.93l21.89-20.02Z"/>
  <path class="cls-1" d="M51.17,85.64c-9.77-3.09-11.11-4.12-29.06-6.92-1.65-.26-3.38-.23-5.07-.33,1.48.48,5.87,4.64,7.39,4.9,10.32,1.8,24.11,4.83,26.73,2.35Z"/>
  <path class="cls-1" d="M54.01,75.11c-9.44-8.36-24.37-13.61-37.32-19.27-2.39-1.05-6.45.51-8.98-.23,6.41,9.24,46.81,19.95,46.3,19.5Z"/>
  <path class="cls-1" d="M103.65,12.6c.32-3.45-2.1-8.26-4.08-11.97-.56,3.98-1.32,7.94-1.65,11.94-.99,11.75-2.15,23.51-2.97,35.28-.13,1.95.2,3.9.24,5.86l8.47-41.11h0Z"/>
  <path class="cls-1" d="M127.58,75.34l27.3-8.71c1.46-.64,2.66-2.59,3.69-4.81-7.73,1.27-23.43,8.53-30.99,13.53Z"/>
  <path class="cls-1" d="M126.8,75.56c-.02-.06-.05-.11,0,0h0Z"/>
  <path class="cls-1" d="M126.77,75.57c.05.11.03.06,0,0h0Z"/>
  <path class="cls-1" d="M42.56,31.08c-3.53-4.14-14-8.2-16-9.9,9.74,15.62,23.6,29.94,37.5,41.85l-21.49-31.95Z"/>
  <path class="cls-1" d="M16.77,39.27l.02-.03-.02.03Z"/>
  <path class="cls-1" d="M37.18,55.29c7.6,6.09,15.16,11.84,21.23,14.09l-17.92-16.97c-1.27-.89-3.07-.98-6.85-.54,1,.94,2.49,2.58,3.54,3.43h0Z"/>
  <path class="cls-1" d="M126.02,63.97c-.83.65-2.85,3.93-3.64,4.63l34.66-19.06c2.56-1.89,7.06-9.57,8.09-12.83-2.29,1.34-4.76,2.45-6.86,4.04-11.21,8.53-21.12,14.58-32.25,23.21h0Z"/>
  <path class="cls-1" d="M.26,93.01c6.44,3.42,17.88,4.03,26.38,4.01,8.78-.02,16.37-.52,23.31-3.48-4.93-.61-49.55-3.04-49.69-.53H.26Z"/>
  <path class="cls-1" d="M30.94,108.54c3.56-.91,9.54-2.09,13.09-3.01,11.47-2.99,5.39-2.46,1.38-2.14-6.3.5-17.2,2.33-21.01,3.35-1.08.29-1.6.64-2.6,1.15-.43.22-2,1.93-1.89,2.4"/>
  <path class="cls-1" d="M68.52,61.41c-.06.04-.11.08,0,0h0Z"/>
  <path class="cls-1" d="M68.54,61.41c.11-.08.06-.04,0,0h0Z"/>
  <path class="cls-1" d="M113.61,92.91l-.1-.25c-.41-1.07-1.19-2.07-1.71-3.07-1-2.56-2.66-6.33-4.97-7.99-2.34-3.29-5.71-4.52-7.55-8.48l-.27-.36-.16-.29-.42-.26-1.47,1.51c-6.57,5.22-15.53,9.15-22.83,13.35-2.7,1.56-7.83,2.36-10.27,4.59-4.51,1.95-3.66,8.01-6.31,11.33-.88,1.1-3.61,1.81-4.79,2.58-1.6,1.04-2.59,2.45-3.76,3.82l-.02.02c-1.03,1.12-1.3.58-2.26,1.9.22,0,.46.03.68,0h127.78c-.4-1.36-2.74-5-3.27-5.82-1.4-2.18-3.33-3.98-5.24-5.72-2.4-2.2-2.58-.49-4.94.25-1.54.48-1.49-.71-2.92-.14-3.42,1.34-6.56,4-10.5,3.83-6.27-.27-9.59-5.19-14.87-6.71-3.39-.98-3.52.9-6.81-.4-1.7-.67-3.11-2-4.83-2.62-2.21-.8-6.69,1.53-8.2-1.07h0Z"/>
</svg>
